src/resources/assets/play-reverse.svg

<svg width="24" height="24" fill="none" xmlns="http://www.w3.org/2000/svg"><path d="M 2,4.75 C 2,4.33579 2.33579,4 2.75,4 h 18.5 C 21.6642,4 22,4.33579 22,4.75 22,5.16421 21.6642,5.5 21.25,5.5 H 2.75 C 2.33579,5.5 2,5.16421 2,4.75 Z m 4.21967,3.46967 c 0.29289,-0.29289 0.76777,-0.29289 1.06066,0 l 2.99997,3.00003 c 0.2929,0.2929 0.2929,0.7677 0,1.0606 -0.29286,0.2929 -0.76774,0.2929 -1.06063,0 L 7.5,10.5607 V 18.75 C 7.5,19.1642 7.16421,19.5 6.75,19.5 6.33579,19.5 6,19.1642 6,18.75 v -8.1893 l -1.71967,1.7196 c -0.29289,0.2929 -0.76777,0.2929 -1.06066,0 -0.29289,-0.2929 -0.29289,-0.7677 0,-1.0606 z M 11.5,8.75 C 11.5,8.33579 11.8358,8 12.25,8 h 9 C 21.6642,8 22,8.33579 22,8.75 22,9.16421 21.6642,9.5 21.25,9.5 h -9 C 11.8358,9.5 11.5,9.16421 11.5,8.75 Z m 0,4 C 11.5,12.33579 11.8358,12 12.25,12 h 9 c 0.4142,0 0.75,0.33579 0.75,0.75 0,0.41421 -0.3358,0.75 -0.75,0.75 h -9 c -0.4142,0 -0.75,-0.33579 -0.75,-0.75 z m 0,4 C 11.5,16.33579 11.8358,16 12.25,16 h 9 c 0.4142,0 0.75,0.33579 0.75,0.75 0,0.41421 -0.3358,0.75 -0.75,0.75 h -9 c -0.4142,0 -0.75,-0.33579 -0.75,-0.75 z" fill="#ddd"/></svg>

<svg width="24" height="24" fill="none" xmlns="http://www.w3.org/2000/svg"><path d="M2 4.75C2 4.33579 2.33579 4 2.75 4H21.25C21.6642 4 22 4.33579 22 4.75C22 5.16421 21.6642 5.5 21.25 5.5H2.75C2.33579 5.5 2 5.16421 2 4.75ZM6.21967 8.21967C6.51256 7.92678 6.98744 7.92678 7.28033 8.21967L10.2803 11.2197C10.5732 11.5126 10.5732 11.9874 10.2803 12.2803C9.98744 12.5732 9.51256 12.5732 9.21967 12.2803L7.5 10.5607V18.75C7.5 19.1642 7.16421 19.5 6.75 19.5C6.33579 19.5 6 19.1642 6 18.75V10.5607L4.28033 12.2803C3.98744 12.5732 3.51256 12.5732 3.21967 12.2803C2.92678 11.9874 2.92678 11.5126 3.21967 11.2197L6.21967 8.21967ZM11.5 8.75C11.5 8.33579 11.8358 8 12.25 8H21.25C21.6642 8 22 8.33579 22 8.75C22 9.16421 21.6642 9.5 21.25 9.5H12.25C11.8358 9.5 11.5 9.16421 11.5 8.75Z" fill="#ddd"/></svg>
